X:1
T:LA BELLE SE SIED AU PIED DE LA TOUR
T:Guillaume DUFAY (1400-1474)  
%%score 1 2 3
L:1/8
Q:1/4=120
M:3/2
K:F
V:1 treble nm="Soprano" snm="S."
V:2 treble nm="Mezzo-soprano" snm="Mzs."
V:3 bass nm="Hommes" snm="H."
V:1
 c4 c2 c2 B4 | A6- A4 G2 | A2 G2 A2 G2 G2 F2 | G4 G2 D4 D2 | F4 F2 F2 G4 | F6 z2 z4 | %6
w: La bel- le de|sied _ au|pied de la tour, qui pleure|et sou- pire et|mè- ne grand do-|lour.|
 c2 cc ccBB BBBB | A6 z2 z4 | (B2 A2) G2 E2 F2 G2 | G2 G2 G2 D4 G2 | (B2 A2) G2 (F2 G2) E2 | F12 | %12
w: Son pè- re lui de- man- de: fil- le qu'a- vez|vous?|Vou _ lez vous ma- ti,|ma,- ri, ma- ri, ou|vou _ lez vous _ sei-|gneur?|
 c4 c2 (d2 c2 B2) | A2 B4 A4 G2 | A4 F2 (E4 D2) | C2 z2 c2 d2 (c2 B2) | (A2 B4 A4 G2) | A6 z4 A2 | %18
w: Je ne veux _ _|ne veux ma- ri,|ma- ri, ma _|ri, Je ne veux _|sei _ _ _|gneur. Je|
 c4 c2 (d2 c2 B2) | A2 B4 (A4 G2) | A6 z2 z4 | A6 (B4 c2) | (d2 c4- c6) | (B2 A2 G2) (A2 F4) | %24
w: veux le mien _ _|le mien a _|mi.|Qui pou _|rit _ _|en _ _ la _|
 G6 z2 z4 | c2 cc ccBB BBBB | A6 z4 G2 | (B2 A2) (G2 F2) F2 E2 | G2 G2 GG D4 D2 | F4 F2 F2 G4 | %30
w: tour.|Hé, par- dieu bel- le fille à ce- lui fau- drez-|vous. Car|il _ se _ ra pen-|du, pen- du, pen- du de-|main au point du|
 F6 z2 z4 | c2 cc ccBB BBBB | A6 z4 G2 | (B2 A4) G4 F2 | G2 G2 GG D4 G2 | B2 (A2 G2) F2 (G2 E2) | %36
w: jour.|Hé, pè- re, s'on le pend, en- fou- yez moi des-|sous. Ci|dit _ font les|gens, les gens, les gens: voi-|ci loy _ aux a _|
 !fermata!F12 |] %37
w: mours.|
V:2
 c2 B2 A2 (G4 F2) | (F2 E2- E6) E2 | F2 E4 D2 C4 | D2 G2 B2 (A2 G4) | (F4 E2) D2 z2 (EF) | %5
w: La bel- le se _|sied _ _ au|pied de la tour,|Qui pleure et sou _|pi _ re, et _|
 (DCDE) (FG)(AG FE)(FD) | F8 z4 | c2 cc ccAd cBcA | G2 z2 c2 c2 c2 c2 | (A2 B2) d2 (B2 G2) G2 | %10
w: mè _ _ _ ne _ grand _ _ _ do _|lour.|Son pè- re lui de- man- de: fil- le qu'a- vez|vous? Vou- lez- vous ma-|ri, _ ma- ri _ ma-|
 G2 D2 (GA)(Bc) (dB)(cA) | c12 | G6 (G4 A2) | (A2 G2) AB (c2 d4) | c4 B2 (A2 BAGF) | %15
w: ri, ou voi _ lez _ vous _ sei _|gneur?|Je ne _|veux _ je ne veux _|ma- ri, ma _ _ _ _|
 (E2 F2) D2 C4 D2 | E4 F2 (E2 D4) | E2 z2 A2 (c2 B2) A2 | (G4 F2) (E4 D2) | C2 (G2 F2) E2 D4 | %20
w: ri _ ma- ri, je|ne veux sei _|gneur, Je veux _ le|mien _ a _|mi le _ mien a-|
 E2 z2 D2 (C4 D2) | (E2 FG A2) F2 E4 | F6 z4 (F2 | E2 FE FGAB cdcA | cBGB AFEF GCDE | F4) z4 z4 | %26
w: mi qui pour _|rit _ _ _ en la|tout. Ah|_ _ _ _ _ _ _ _ _ _ _|||
 c2 cc ccAd cBcA | G2 z2 d2 d2 c2 A2 | B2 d2 B2 G2 G2 GG | D2 z2 D2 (D2 E2 F2) | %30
w: Hé, par- dieu bel- le fille à ce- lui fau- drez-|vous. Car il se- ra|pen- du, pen- du, pen- du, pen-|du de- main _ _|
 (DCDE FG)(AG FE)(FD) | F6 z2 z4 | c2 cc ccAd cBcA | G2 z2 c2 c2 c4 | B4 A2 G2 G2 GG | %35
w: au _ _ _ _ _ point _ _ _ du _|jour.|Hé, pè- re, s'on le pend, en- fou- yez moi des-|sous. Ci di- ront|les gens, les gens, les gens:|
 G2 G2 (E2 F2) G2 G2 | !fermata!C12 |] %37
w: voi- ci loy _ aux a-|mours.|
V:3
 F,6 G,6 | A,6 A,6 | (C4 B,4) A,4 | G,12 | B,12- | B,4 A,4 G,4 | F,6 G,6 | A,6 A,6 | C6 A,6 | %9
w: La bel-|le se|sied _ au|pied|de|_ la tour,|Qui pleure|et sou-|pire et|
 G,12 | B,4 A,4 G,4 | F,12 | C6 C6 | C6 B,6 | A,12 | C6 C6 | C6 B,6 | A,6 A,6 | C6 C6 | C6 B,6 | %20
w: mè-|ne grand do-|lour.|Je ne|veux ma-|ri,|Je ne|veux sei-|gneur, Je|veux le|mien a-|
 A,12- | A,6 G,6 | F,6 A,6 | C6 A,6 | G,6- .G,4 z2 | F,6 G,6 | A,6 A,4 A,2 | C4 B,4 A,4 | G,12 | %29
w: mi|_ qui|pou- rit|en la|tour _|Hé par-|dieu, bel- le|fille, à ce-|lui|
 B,12 | (B,4 A,4) G,4 | F,6 G,6 | A,6 A,6 | C6 A,6 | G,6 G,6 | (B,4 A,4) G,4 | !fermata!F,12 |] %37
w: fau-|drez _ vous|Ci di-|ront les|gens: Voi-|ci loy-|aux _ a-|mours.|

